X: 17953
T: Howley & Scahill's
R: jig
M: 6/8
K: Bmixolydian
|:B2B gBf|f2 g fdc|B2 B GBF|EFG Bdc|
B2B gBf|f2 g fg^a|b2 f gfd|efe edc:|
|:cd(B B2)F|EFG Bdc|cd(B B2)f|g2 g fdc|
cd(B B2)F|EFG BEF|GBd edB|1 c2c cdB:|2 c2c cdc||

